X:1
T:Cairn on the Moor
C:Traditional
M:3/4
L:1/4
Q:1/4=120
K:D
A | d2 B | A2 F | G2 E | F2 A | B2 G | d2 B | A2 F | e f g | a3 | b2 g | f2 d | e2 c | d2 B | A B c | d3/2c/2B | A2 D |]
